wP.svg

<?xml version="1.0" encoding="UTF-8" standalone="no"?>
<!-- Created with Inkscape (http://www.inkscape.org/) -->

<svg
   xmlns:dc="http://purl.org/dc/elements/1.1/"
   xmlns:cc="http://creativecommons.org/ns#"
   xmlns:rdf="http://www.w3.org/1999/02/22-rdf-syntax-ns#"
   xmlns:svg="http://www.w3.org/2000/svg"
   xmlns="http://www.w3.org/2000/svg"
   xmlns:sodipodi="http://sodipodi.sourceforge.net/DTD/sodipodi-0.dtd"
   xmlns:inkscape="http://www.inkscape.org/namespaces/inkscape"
   width="200"
   height="200"
   viewBox="0 0 200 200"
   id="svg8327"
   version="1.1"
   inkscape:version="0.91 r13725"
   sodipodi:docname="wP.svg">
  <defs
     id="defs8329">
    <filter
       id="fShadow"
       width="150%"
       height="150%">
      <feGaussianBlur
         in="SourceAlpha"
         stdDeviation="3"
         result="blur"
         id="feGaussianBlur4609" />
      <feColorMatrix
         in="blur"
         type="matrix"
         values="2 0 0 0 0 0 2 0 0 0 0 0 2 0 0 0 0 0 0.5 0 "
         result="blurAlpha"
         id="feColorMatrix4611" />
      <feOffset
         in="blurAlpha"
         dx="4.5"
         dy="4.5"
         result="offsetBlur"
         id="feOffset4613" />
      <feBlend
         in="SourceGraphic"
         in2="offsetBlur"
         mode="normal"
         id="feBlend4615" />
    </filter>
  </defs>
  <sodipodi:namedview
     id="base"
     pagecolor="#ffffff"
     bordercolor="#666666"
     borderopacity="1.0"
     inkscape:pageopacity="0.0"
     inkscape:pageshadow="2"
     inkscape:zoom="2.8284271"
     inkscape:cx="130.74917"
     inkscape:cy="97.313549"
     inkscape:document-units="px"
     inkscape:current-layer="layer1"
     showgrid="false"
     units="px"
     inkscape:window-width="1680"
     inkscape:window-height="702"
     inkscape:window-x="0"
     inkscape:window-y="282"
     inkscape:window-maximized="0"
     inkscape:snap-bbox="true"
     inkscape:bbox-paths="true"
     inkscape:bbox-nodes="true"
     inkscape:snap-intersection-paths="true"
     inkscape:object-nodes="true"
     inkscape:snap-bbox-edge-midpoints="false"
     inkscape:snap-midpoints="true" />
  <metadata
     id="metadata8332">
    <rdf:RDF>
      <cc:Work
         rdf:about="">
        <dc:format>image/svg+xml</dc:format>
        <dc:type
           rdf:resource="http://purl.org/dc/dcmitype/StillImage" />
        <dc:title />
        <cc:license
           rdf:resource="http://creativecommons.org/licenses/by-sa/4.0/" />
      </cc:Work>
    </rdf:RDF>
  </metadata>
  <g
     inkscape:label="Layer 1"
     inkscape:groupmode="layer"
     id="layer1"
     transform="translate(0,0)">
    <path
       style="opacity:1;fill:#ffffff;fill-opacity:1;stroke:#000000;stroke-width:6;stroke-linejoin:bevel;stroke-miterlimit:4;stroke-dasharray:none;stroke-opacity:1;filter:url(#fShadow)"
       d="m 40,40 0,120 120,0 0,-120 -120,0 z m 40,40 40,0 0,40 -40,0 0,-40 z"
       id="rect4139"
       inkscape:connector-curvature="0" />
  </g>
</svg>

<?xml version="1.0" encoding="UTF-8" standalone="no"?>
<!-- Created with Inkscape (http://www.inkscape.org/) -->

<svg
   xmlns:dc="http://purl.org/dc/elements/1.1/"
   xmlns:cc="http://creativecommons.org/ns#"
   xmlns:rdf="http://www.w3.org/1999/02/22-rdf-syntax-ns#"
   xmlns:svg="http://www.w3.org/2000/svg"
   xmlns="http://www.w3.org/2000/svg"
   xmlns:sodipodi="http://sodipodi.sourceforge.net/DTD/sodipodi-0.dtd"
   xmlns:inkscape="http://www.inkscape.org/namespaces/inkscape"
   width="200"
   height="200"
   viewBox="0 0 200 200"
   id="svg8327"
   version="1.1"
   inkscape:version="0.91 r13725"
   sodipodi:docname="wP.svg">
  <defs
     id="defs8329">
<filter id="fShadow" width="150%" height="150%">
    <feGaussianBlur in="SourceAlpha" stdDeviation="3" result="blur" id="feGaussianBlur4609" />
    <feColorMatrix in="blur" type="matrix" values="2 0 0 0 0 0 2 0 0 0 0 0 2 0 0 0 0 0 0.5 0 " result="blurAlpha" id="feColorMatrix4611" />
    <feOffset in="blurAlpha" dx="4.5" dy="4.5" result="offsetBlur" id="feOffset4613" />
    <feBlend in="SourceGraphic" in2="offsetBlur" mode="normal" id="feBlend4615" />
</filter>
  </defs>
  <sodipodi:namedview
     id="base"
     pagecolor="#ffffff"
     bordercolor="#666666"
     borderopacity="1.0"
     inkscape:pageopacity="0.0"
     inkscape:pageshadow="2"
     inkscape:zoom="2.8284271"
     inkscape:cx="130.74917"
     inkscape:cy="97.313549"
     inkscape:document-units="px"
     inkscape:current-layer="layer1"
     showgrid="false"
     units="px"
     inkscape:window-width="1680"
     inkscape:window-height="882"
     inkscape:window-x="0"
     inkscape:window-y="102"
     inkscape:window-maximized="0"
     inkscape:snap-bbox="true"
     inkscape:bbox-paths="true"
     inkscape:bbox-nodes="true"
     inkscape:snap-intersection-paths="true"
     inkscape:object-nodes="true"
     inkscape:snap-bbox-edge-midpoints="false"
     inkscape:snap-midpoints="true" />
  <metadata
     id="metadata8332">
    <rdf:RDF>
      <cc:Work
         rdf:about="">
        <dc:format>image/svg+xml</dc:format>
        <dc:type
           rdf:resource="http://purl.org/dc/dcmitype/StillImage" />
        <dc:title />
        <cc:license
           rdf:resource="http://creativecommons.org/licenses/by-sa/4.0/" />
      </cc:Work>
    </rdf:RDF>
  </metadata>
  <g
     inkscape:label="Layer 1"
     inkscape:groupmode="layer"
     id="layer1"
     transform="translate(0,0)">
    <path
       filter="url(#fShadow)"
       style="opacity:1;fill:#ffffff;fill-opacity:1;stroke:#000000;stroke-width:6;stroke-linejoin:bevel;stroke-miterlimit:4;stroke-dasharray:none;stroke-opacity:1"
       d="M 40 40 L 40 160 L 160 160 L 160 40 L 40 40 z M 80 80 L 120 80 L 120 120 L 80 120 L 80 80 z "
       id="rect4139" />
  </g>
</svg>
